contributed-vectors/easy_drawer.svg

<?xml version="1.0" encoding="UTF-8" standalone="no"?>
<svg
   xmlns:dc="http://purl.org/dc/elements/1.1/"
   xmlns:cc="http://creativecommons.org/ns#"
   xmlns:rdf="http://www.w3.org/1999/02/22-rdf-syntax-ns#"
   xmlns:svg="http://www.w3.org/2000/svg"
   xmlns="http://www.w3.org/2000/svg"
   xmlns:sodipodi="http://sodipodi.sourceforge.net/DTD/sodipodi-0.dtd"
   xmlns:inkscape="http://www.inkscape.org/namespaces/inkscape"
   viewBox="0 0 192 192"
   version="1.1"
   id="svg16"
   sodipodi:docname="easy-drawer.svg"
   inkscape:version="0.92.4 (5da689c313, 2019-01-14)">
  <metadata
     id="metadata20">
    <rdf:RDF>
      <cc:Work
         rdf:about="">
        <dc:format>image/svg+xml</dc:format>
        <dc:type
           rdf:resource="http://purl.org/dc/dcmitype/StillImage" />
        <dc:title></dc:title>
      </cc:Work>
    </rdf:RDF>
  </metadata>
  <sodipodi:namedview
     pagecolor="#ffffff"
     bordercolor="#666666"
     borderopacity="1"
     objecttolerance="10"
     gridtolerance="10"
     guidetolerance="10"
     inkscape:pageopacity="0"
     inkscape:pageshadow="2"
     inkscape:window-width="1920"
     inkscape:window-height="1017"
     id="namedview18"
     showgrid="true"
     inkscape:zoom="2.4583333"
     inkscape:cx="82.628174"
     inkscape:cy="122.84746"
     inkscape:window-x="-8"
     inkscape:window-y="-8"
     inkscape:window-maximized="1"
     inkscape:current-layer="svg16"
     showguides="true"
     inkscape:guide-bbox="true">
    <inkscape:grid
       type="xygrid"
       id="grid827"
       spacingx="4"
       spacingy="4" />
  </sodipodi:namedview>
  <defs
     id="defs4">
    <style
       id="style2">.a{fill:none;stroke:#b1b5bd;stroke-linecap:round;stroke-linejoin:round;isolation:isolate;opacity:0.63;}</style>
    <style
       id="style2-6">.a{fill:none;stroke:#b1b5bd;stroke-linecap:round;stroke-linejoin:round;isolation:isolate;opacity:0.63;}</style>
  </defs>
  <circle
     class="a"
     cx="96"
     cy="96"
     r="88"
     id="circle8"
     style="fill:#56595b;stroke:none;opacity:1" />
  <path
     style="fill:#96dfd3;stroke:none;stroke-width:1px;stroke-linecap:butt;stroke-linejoin:miter;stroke-opacity:1"
     d="m 96,60 v 40 L 121.47852,70.521484 C 114.97152,64.014484 105.972,60 96,60 Z"
     id="path822"
     inkscape:connector-curvature="0"
     sodipodi:nodetypes="cccc" />
  <path
     style="fill:#ff837d"
     d="M 96,92 70.521484,121.47852 C 77.028484,127.98552 86.028,132 96,132 Z"
     id="path822-7"
     inkscape:connector-curvature="0"
     sodipodi:nodetypes="cccc" />
  <path
     style="fill:#f9de81"
     d="m 92,96 29.47852,25.47852 C 127.98552,114.97152 132,105.972 132,96 Z"
     id="path822-7-1-3"
     inkscape:connector-curvature="0"
     sodipodi:nodetypes="cccc" />
  <path
     style="fill:#f8c18c"
     d="M 96 96 L 96 132 C 105.972 132 114.97152 127.98552 121.47852 121.47852 L 96 96 z "
     id="path822-7-1" />
  <path
     style="fill:#98dc9a"
     d="M 121.47852 70.521484 L 96 96 L 132 96 C 132 86.028 127.98552 77.028484 121.47852 70.521484 z "
     id="path822-7-0" />
  <path
     style="fill:#728dbe"
     d="M 70.521484,70.521484 C 64.014484,77.028484 60,86.028 60,96 h 40 z"
     id="path822-7-0-3"
     inkscape:connector-curvature="0"
     sodipodi:nodetypes="cccc" />
  <path
     style="fill:#9abeff;stroke:none;stroke-width:1px;stroke-linecap:butt;stroke-linejoin:miter;stroke-opacity:1"
     d="M 96 60 C 86.028 60 77.028484 64.014484 70.521484 70.521484 L 96 96 L 96 60 z "
     id="path822-4" />
  <path
     style="fill:#8c72bd"
     d="M 60 96 C 60 105.972 64.014484 114.97152 70.521484 121.47852 L 96 96 L 60 96 z "
     id="path822-7-0-3-5" />
  <rect
     style="opacity:1;vector-effect:none;fill:#56595b;fill-opacity:1;fill-rule:evenodd;stroke:none;paint-order:stroke fill markers"
     id="rect922"
     width="48"
     height="48"
     x="72"
     y="72"
     ry="24" />
</svg>

<svg xmlns="http://www.w3.org/2000/svg" viewBox="0 0 192 192"><circle cx="96" cy="96" r="88" style="fill:#56595b;stroke:none;opacity:1;stroke-linecap:round;stroke-linejoin:round;isolation:isolate"/><path d="M96 60v40l25.479-29.479C114.972 64.014 105.972 60 96 60Z" style="fill:#96dfd3;stroke:none;stroke-width:1px;stroke-linecap:butt;stroke-linejoin:miter;stroke-opacity:1"/><path d="m96 92-25.479 29.479C77.028 127.986 86.028 132 96 132Z" style="fill:#ff837d"/><path d="m92 96 29.479 25.479C127.986 114.972 132 105.972 132 96Z" style="fill:#f9de81"/><path d="M96 96v36c9.972 0 18.972-4.014 25.479-10.521L96 96z" style="fill:#f8c18c"/><path d="M121.479 70.521 96 96h36c0-9.972-4.014-18.972-10.521-25.479z" style="fill:#98dc9a"/><path d="M70.521 70.521C64.014 77.028 60 86.028 60 96h40z" style="fill:#728dbe"/><path d="M96 60c-9.972 0-18.972 4.014-25.479 10.521L96 96V60z" style="fill:#9abeff;stroke:none;stroke-width:1px;stroke-linecap:butt;stroke-linejoin:miter;stroke-opacity:1"/><path d="M60 96c0 9.972 4.014 18.972 10.521 25.479L96 96H60z" style="fill:#8c72bd"/><rect width="48" height="48" x="72" y="72" ry="24" style="opacity:1;vector-effect:none;fill:#56595b;fill-opacity:1;fill-rule:evenodd;stroke:none;paint-order:stroke fill markers"/></svg>
